X:1
T:[ID 5-16]
T:[ID 5-16]
T:Bezeichnung standardisiert: Courante Cour.
T:Urheber unbekannt Datum in der hier transkribierten schriftlichen Quelle: 1773
C:Urheber unbekannt
C:Datum in der hier transkribierten schriftlichen Quelle: 1773
%%score 1 2
L:1/8
M:2/4
K:D
V:1 treble 
V:2 treble 
V:1
 A | dfeg | fa a2 |"^1)" fe/d/cd | e/d/c/B/AA | dfeg | fa a2 |{g} fe/d/ c/d/e/c/ | d3 :: g | faeg | %11
 faeg | f"^1)"e/d/cd | e/d/c/B/Ag | faeg | fa a2 |{g} fe/d/ c/d/e/c/ | d3 :| %18
V:2
 !fermata!A/G/ | Fdce | df f2 |"^1)" edcB | cc c2 | Fdce | df f2 |{e} dFGE | F3 :: e | dfce | %11
 dfce | d"^1)"fed | ccce | dfce | df c2 | dFGE | F3 :| %18

